X:1
T:Title
%%score { ( 1 3 ) | ( 2 4 ) }
L:1/8
M:3/4
K:Ab
V:1 treble nm="Grand Piano"
V:3 treble 
V:2 treble 
V:4 treble 
V:1
 z2 z2[Q:1/4=108] A>c | e4 f>e | e4 cA | [GB]2 [Ge]2 [GB]2 |[M:4/4] c6 A>c |[M:3/4] e2 e2 f2 | %6
 e4 [EAc][CEA] | [B,GB]2 [Ge]2 [DEG]2 | [CEA]4 cc | c2 c2 c2 | [Fd]2 [Fd]2 [Fd]2 | B2 B2 B2 | %12
 c4 c2 | [Ec]2 [Ec]2 [Ec]2 | [Fd]2 [Fd]2 [Fd]2 | B2 e2 d2 |[M:4/4] E6 cc |[M:3/4] c2 B2 A2 | %18
 F2 F2 GA | B2 A2 F2 | E4 z2 | [CE]4 F>E | E4 [CE][CA] | [DA]2 [DG]2 [DF]2 | [DF]2 E2 [CA]>[B,DB] | %25
 c4- [_Gc]2 | %26
[M:4/4] [Fd]6 A[FA][Q:1/4=105][Q:1/4=101][Q:1/4=98][Q:1/4=95][Q:1/4=91][Q:1/4=88][Q:1/4=84] | %27
[M:3/4] A2 G2 B2 |[M:2/4] [CA]4 |] %29
V:2
 z2 z2 [A,CE]>[A,CE] | [A,CE]4 [A,DA]>[A,CA] | [A,CA]4 [A,EA][K:bass][A,C] | %3
 [E,B,]2 [E,B,]2 [E,E]2 |[M:4/4][K:treble] [A,EA]6 [A,CE]>[A,CE] |[M:3/4] [A,CE]2 [A,CA]2 [A,DA]2 | %6
 [A,CA]4[K:bass] A,,C, | E,2 [E,B,]2 E,2 | A,,4 [A,E][A,E] | [A,E]2 [A,E]2 [A,E]2 | %10
 [D,A,]2 [D,A,]2 [D,A,]2 | [E,G,E]2 [E,G,E]2 [E,G,E]2 | [A,E]4 [A,E]2 | %13
 [A,,A,]2 [A,,A,]2 [A,,A,]2 | [D,A,]2 [D,A,]2 [D,A,]2 | [E,G,E]2 [E,G,E]2 [E,G,E]2 | %16
[M:4/4] [A,,A,]6 C2 |[M:3/4] C2 B,2 A,2 | F,2 F,2 G,A, | B,2 A,2 F,2 | [E,G,]3 D, C,>B,, | %21
 z2 z2 D>D | C4 A,,C, | E,2 E,2 E,2 | z2 C2 A,,>A,, | A,4- [A,,A,-]>[A,-_G] | %26
[M:4/4] [D,A,]6 [D,F,][D,A,] |[M:3/4] [E,CE]2 [E,B,D]2 [E,G,D]2 |[M:2/4] [A,,A,]4 |] %29
V:3
 x6 | x6 | x6 | x6 |[M:4/4] x8 |[M:3/4] x6 | x6 | x6 | x6 | x6 | x6 | x6 | x6 | x6 | x6 | x6 | %16
[M:4/4] x8 |[M:3/4] x6 | x6 | x6 | z2 z B, [A,C]>[B,D] | x6 | x6 | x6 | x6 | E4 z2 |[M:4/4] x8 | %27
[M:3/4] x6 |[M:2/4] x4 |] %29
V:4
 x6 | x6 | x5[K:bass] x | x6 |[M:4/4][K:treble] x8 |[M:3/4] x6 | x4[K:bass] x2 | x6 | x6 | x6 | %10
 x6 | x6 | x6 | x6 | x6 | x6 |[M:4/4] x8 |[M:3/4] x6 | x6 | x6 | x6 | A,,6- | A,,4 z2 | x6 | %24
 A,,4 z2 | A,,4 z A,, |[M:4/4] x8 |[M:3/4] x6 |[M:2/4] x4 |] %29

